static/icons/zeus.svg

<svg width="124" height="58" viewBox="0 0 124 58" fill="none" xmlns="http://www.w3.org/2000/svg">
<g clip-path="url(#clip0_32_3360)">
<path d="M82.4585 30.431C82.4585 30.431 86.4824 12.6116 94.9764 1.21194L124 0C124 0 109.856 13.2716 105.759 20.4713L122.699 19.2114C122.699 19.2114 95.9642 38.3267 86.9765 57.7901C86.9765 57.7901 85.0246 41.7708 94.1933 29.2191L82.4585 30.431Z" fill="#FFD93F"/>
<path d="M46.3986 7.62012C46.3986 7.62012 41.4106 9.76807 35.688 14.1599C29.9651 18.5518 26.7965 23.5316 26.7965 23.5316C26.7965 23.5316 28.5314 23.6756 27.9772 24.5276C27.423 25.3796 25.8447 26.8915 25.8447 26.8915C25.8447 26.8915 28.7483 28.7875 37.3265 32.5193C45.9049 36.2512 47.1456 36.8992 47.2421 36.5632C47.3504 36.2272 51.2901 37.2352 51.2901 37.2352C51.2901 37.2352 41.0252 31.3913 35.8687 26.7835C35.8687 26.7835 37.1096 25.7035 40.2299 24.6236C43.3506 23.5436 45.0009 23.2436 45.0614 22.8596C45.1214 22.4757 44.1095 22.3077 44.1095 22.3077L47.7239 21.1917C47.7239 21.1917 40.8082 20.9277 33.4591 22.5836C33.4591 22.5836 36.9289 17.0758 40.5794 14.3159C44.2301 11.556 45.7962 10.824 45.8566 10.296C45.9167 9.76807 45.0614 9.44406 45.0614 9.44406C45.0614 9.44406 45.2661 8.41211 46.3986 7.62012Z" fill="white"/>
<path d="M22.1701 16.4748C22.1701 16.4748 17.8569 21.1306 13.4594 27.9344C9.06183 34.7382 3.327 43.4377 4.70048 44.3138C6.07393 45.1898 8.24259 44.866 8.24259 44.866C8.24259 44.866 7.95345 45.8378 8.59198 45.922C9.23054 46.0058 13.8329 42.13 19.3027 40.0419C24.7725 37.9421 29.1339 36.7661 29.2544 36.2022C29.3748 35.6262 27.5797 35.2902 27.6881 35.2902C27.7845 35.2902 29.7363 34.7982 29.8808 34.1622C30.0375 33.5262 28.6158 33.2503 26.4712 33.5022C24.3267 33.7542 14.7124 36.6221 14.7124 36.6221C14.7124 36.6221 21.7605 23.9745 25.6761 18.8027C29.5917 13.6309 30.8688 12.6229 30.8567 11.8429C30.8447 11.063 27.6279 11.159 27.6279 11.159C27.6279 11.159 27.2062 10.271 26.7363 10.259C26.2665 10.247 14.3269 10.799 6.02575 12.4189C-2.27533 14.0389 0.122225 14.1349 1.02582 14.8908C1.91738 15.6588 0.531861 17.2068 0.531861 17.2068C0.531861 17.2068 4.60407 17.0388 4.54383 17.8787C4.48359 18.7187 3.21856 19.6667 3.21856 19.6667C3.21856 19.6667 12.8811 17.0268 22.1701 16.4748Z" fill="white"/>
<path d="M49.9771 8.37598C49.9771 8.37598 51.3506 15.6477 51.7961 21.9955C52.242 28.3433 51.8202 33.9951 52.1455 34.1871C52.459 34.3791 55.2421 33.2151 58.8683 33.6111C62.4949 34.0071 65.1816 34.1271 65.4828 33.7671C65.784 33.4071 65.495 32.5672 65.495 32.5672C65.495 32.5672 66.1935 32.6752 66.3263 32.1832C66.4587 31.6912 65.784 31.1632 65.784 31.1632C65.784 31.1632 65.784 26.1714 65.495 20.1115C65.218 14.0637 63.3503 8.75996 63.3503 8.75996C63.3503 8.75996 62.1214 29.1353 61.772 30.3593C61.772 30.3593 58.4228 29.2073 55.8445 29.4353C55.8445 29.4353 54.3867 21.1675 53.1819 15.4797C51.9771 9.79191 51.6396 8.66393 51.3506 8.72394C51.0976 8.77193 50.8684 9.82789 50.8684 9.82789L49.9771 8.37598Z" fill="white"/>
<path d="M93.0005 18.3596C93.0005 18.3596 83.4104 12.9478 77.2295 11.4838C71.049 10.0198 69.8802 10.3439 70.3502 10.6918C70.8202 11.0278 71.9526 11.6758 71.9526 11.6758C71.9526 11.6758 67.7718 11.5798 68.1454 12.0958C68.5189 12.6118 69.7118 16.5236 69.6877 20.6275C69.6636 24.7314 69.6636 27.5393 69.9043 27.6473C70.1454 27.7553 72.2779 27.5753 72.2779 27.5753C72.2779 27.5753 71.7479 28.4033 72.2538 28.4873C72.7598 28.5712 75.2057 28.0553 77.7959 28.2233C80.3862 28.3913 81.5791 28.7153 81.5791 28.7153C81.5791 28.7153 81.8321 34.3671 80.2296 38.5428C80.2296 38.5428 68.0612 33.6831 67.6513 34.2111C67.2418 34.727 67.9647 35.891 67.9647 35.891L63.2661 37.799C63.2661 37.799 69.6755 39.0469 74.9646 41.1468C80.2537 43.2468 83.2898 45.0467 83.7839 44.8668C84.2776 44.6866 85.1089 42.4067 86.4342 35.519C87.7596 28.6313 87.0125 25.2354 86.4947 24.8274C85.3381 23.9274 73.3863 24.4434 73.3863 24.4434C73.3863 24.4434 73.9286 19.5715 73.4946 16.6316C73.5068 16.6196 74.0128 14.8077 93.0005 18.3596Z" fill="white"/>
</g>
<defs>
<clipPath id="clip0_32_3360">
<rect width="124" height="57.7901" fill="white"/>
</clipPath>
</defs>
</svg>

<svg width="124" height="58" fill="none" xmlns="http://www.w3.org/2000/svg"><g clip-path="url(#a)"><path d="M82.459 30.431s4.023-17.82 12.517-29.22L124 0s-14.144 13.272-18.241 20.471l16.94-1.26s-26.735 19.116-35.722 38.58c0 0-1.952-16.02 7.216-28.572L82.46 30.431Z" fill="#FFD93F"/><path d="M46.399 7.62s-4.988 2.148-10.711 6.54c-5.723 4.392-8.892 9.372-8.892 9.372s1.735.144 1.181.996-2.132 2.364-2.132 2.364 2.903 1.896 11.482 5.627c8.578 3.732 9.819 4.38 9.915 4.044.108-.336 4.048.672 4.048.672s-10.265-5.844-15.42-10.451c0 0 1.24-1.08 4.36-2.16 3.122-1.08 4.772-1.38 4.832-1.764.06-.384-.952-.552-.952-.552l3.615-1.116s-6.916-.264-14.265 1.392c0 0 3.47-5.508 7.12-8.268 3.651-2.76 5.217-3.492 5.278-4.02.06-.528-.796-.852-.796-.852s.205-1.032 1.338-1.824Z" fill="#fff"/><path d="M22.17 16.475s-4.313 4.656-8.71 11.46C9.061 34.737 3.326 43.437 4.7 44.313c1.374.876 3.543.552 3.543.552s-.29.972.349 1.056c.639.084 5.24-3.792 10.71-5.88 5.47-2.1 9.832-3.276 9.952-3.84.12-.576-1.674-.912-1.566-.912.097 0 2.048-.492 2.193-1.128.157-.636-1.265-.912-3.41-.66-2.144.252-11.759 3.12-11.759 3.12s7.049-12.648 10.964-17.82c3.916-5.171 5.193-6.18 5.18-6.96-.011-.779-3.228-.683-3.228-.683s-.422-.888-.892-.9c-.47-.012-12.41.54-20.71 2.16-8.301 1.62-5.904 1.716-5 2.472.891.768-.494 2.316-.494 2.316s4.072-.168 4.012.672c-.06.84-1.325 1.788-1.325 1.788s9.662-2.64 18.951-3.192Zm27.807-8.099s1.374 7.272 1.82 13.62c.445 6.347.023 12 .349 12.191.313.192 3.096-.972 6.722-.576 3.627.396 6.314.516 6.615.156.301-.36.012-1.2.012-1.2s.698.108.831-.384-.542-1.02-.542-1.02 0-4.992-.289-11.052C65.218 14.064 63.35 8.76 63.35 8.76s-1.229 20.375-1.578 21.6c0 0-3.35-1.153-5.928-.925 0 0-1.457-8.267-2.662-13.955-1.205-5.688-1.542-6.816-1.831-6.756-.253.048-.483 1.104-.483 1.104l-.89-1.452Z" fill="#fff"/><path d="M93 18.36s-9.59-5.412-15.77-6.876c-6.181-1.464-7.35-1.14-6.88-.792.47.336 1.603.984 1.603.984s-4.181-.096-3.808.42c.374.516 1.567 4.428 1.543 8.532-.024 4.103-.024 6.911.216 7.02.241.107 2.374-.073 2.374-.073s-.53.828-.024.912c.506.084 2.952-.432 5.542-.264 2.59.168 3.783.492 3.783.492s.253 5.652-1.35 9.828c0 0-12.168-4.86-12.578-4.332-.41.516.314 1.68.314 1.68l-4.699 1.908s6.41 1.248 11.699 3.348c5.289 2.1 8.325 3.9 8.819 3.72.494-.18 1.325-2.46 2.65-9.348 1.326-6.888.579-10.284.06-10.692-1.156-.9-13.108-.384-13.108-.384s.543-4.872.109-7.811c.012-.012.518-1.824 19.505 1.728Z" fill="#fff"/></g><defs><clipPath id="a"><path fill="#fff" d="M0 0h124v57.79H0z"/></clipPath></defs></svg>
